X:1
T:Mill na M'aid'i
L:1/8
M:2/2
I:linebreak $
K:D
V:1 treble 
V:1
 FD D2 FDGD | FD D2 EFGE | FD D2 FDEF | G2 BG EFGE :: A3 d B2 AF | DFAF EFGB |$ A3 d BFAF | %7
 G2 BG EFGE :: fd d2 fdgd | fd d2 efge | fd d2 fdef | g2 bg efge ::$ d2 ad bdad | dfaf efge | %14
 dfaf bfaf | g2 bg efge :: d2 AG FD D2 |$ FD (3EFG FA A2 | A3 d BFAF | EDCD EFGE :| %20
